loleaflet/images/lc_setanchortochar.svg

<svg viewBox="0 0 24 24" xmlns="http://www.w3.org/2000/svg"><path d="m8.7265625 2.0058594-5.625 14.9941406h1.609375c.1749651 0 .3235975-.049539.4453125-.148438.129322-.09889.2160757-.212473.2617188-.341796l1.2363281-3.509766h6.2500001l.361328 1.025391c.076827-.012676.154569-.025391.234375-.025391h1.5v-.572266c-1.112875-.601945-1.9979-1.651784-2-2.925781v-.001953c0-.5614438.155248-1.1133403.414062-1.6113281l-2.576171-6.8828125zm1.0507813 1.9628906c.0684659.2814657.1407259.5436795.2167968.7871094.0760724.2434298.1524444.4560994.2285154.6386718l1.976563 5.6054688h-4.839844l1.9726562-5.59375c.0684644-.1825724.140726-.3952421.2167969-.6386719.0760731-.2434298.1524438-.5097552.2285157-.7988281z" fill="#3a3a38" stroke-width=".750147"/><path d="m16.5 8a2.5 2.5 0 0 0 -2.5 2.5 2.5 2.5 0 0 0 2 2.445313v2.054687h-2.5c-.277 0-.5.223-.5.5s.223.5.5.5h2.5v6.974609a7.5 7.5 0 0 1 -5.490234-2.974609h1.990234c.277 0 .5-.223.5-.5s-.223-.5-.5-.5h-3c-.277 0-.5.223-.5.5v3c0 .277.223.5.5.5s.5-.223.5-.5v-1.550781a8.5 8.5 0 0 0 6.5 3.050781 8.5 8.5 0 0 0 6.5-3.042969v1.542969c0 .277.223.5.5.5s.5-.223.5-.5v-3c0-.277-.223-.5-.5-.5h-3c-.277 0-.5.223-.5.5s.223.5.5.5h1.988281a7.5 7.5 0 0 1 -5.488281 2.974609v-6.974609h2.5c.277 0 .5-.223.5-.5s-.223-.5-.5-.5h-2.5v-2.050781a2.5 2.5 0 0 0 2-2.449219 2.5 2.5 0 0 0 -2.5-2.5zm0 1a1.5 1.5 0 0 1 1.5 1.5 1.5 1.5 0 0 1 -1.5 1.5 1.5 1.5 0 0 1 -1.5-1.5 1.5 1.5 0 0 1 1.5-1.5z" fill="#1e8bcd"/></svg>

<?xml version="1.0" encoding="UTF-8" standalone="no"?>
<svg
   xmlns:dc="http://purl.org/dc/elements/1.1/"
   xmlns:cc="http://creativecommons.org/ns#"
   xmlns:rdf="http://www.w3.org/1999/02/22-rdf-syntax-ns#"
   xmlns:svg="http://www.w3.org/2000/svg"
   xmlns="http://www.w3.org/2000/svg"
   xmlns:sodipodi="http://sodipodi.sourceforge.net/DTD/sodipodi-0.dtd"
   xmlns:inkscape="http://www.inkscape.org/namespaces/inkscape"
   viewBox="0 0 24 24"
   version="1.1"
   id="svg4"
   sodipodi:docname="lc_anchor.svg"
   inkscape:version="0.92.5 (2060ec1f9f, 2020-04-08)">
  <metadata
     id="metadata10">
    <rdf:RDF>
      <cc:Work
         rdf:about="">
        <dc:format>image/svg+xml</dc:format>
        <dc:type
           rdf:resource="http://purl.org/dc/dcmitype/StillImage" />
        <dc:title></dc:title>
      </cc:Work>
    </rdf:RDF>
  </metadata>
  <defs
     id="defs8" />
  <sodipodi:namedview
     pagecolor="#ffffff"
     bordercolor="#666666"
     borderopacity="1"
     objecttolerance="10"
     gridtolerance="10"
     guidetolerance="10"
     inkscape:pageopacity="0"
     inkscape:pageshadow="2"
     inkscape:window-width="1366"
     inkscape:window-height="700"
     id="namedview6"
     showgrid="true"
     inkscape:zoom="19.666667"
     inkscape:cx="18.634028"
     inkscape:cy="9.0309279"
     inkscape:window-x="0"
     inkscape:window-y="0"
     inkscape:window-maximized="1"
     inkscape:current-layer="svg4">
    <inkscape:grid
       type="xygrid"
       id="grid817" />
  </sodipodi:namedview>
  <path
     style="fill:#3a3a38;stroke-width:0.75014657"
     d="M 8.7265625 2.0058594 L 3.1015625 17 L 4.7109375 17 C 4.8859026 17 5.034535 16.950461 5.15625 16.851562 C 5.285572 16.752672 5.3723257 16.639089 5.4179688 16.509766 L 6.6542969 13 L 12.904297 13 L 13.265625 14.025391 C 13.342452 14.012715 13.420194 14 13.5 14 L 15 14 L 15 13.427734 C 13.887125 12.825789 13.0021 11.77595 13 10.501953 L 13 10.5 C 13 9.9385562 13.155248 9.3866597 13.414062 8.8886719 L 10.837891 2.0058594 L 8.7265625 2.0058594 z M 9.7773438 3.96875 C 9.8458097 4.2502157 9.9180697 4.5124295 9.9941406 4.7558594 C 10.070213 4.9992892 10.146585 5.2119588 10.222656 5.3945312 L 12.199219 11 L 7.359375 11 L 9.3320312 5.40625 C 9.4004956 5.2236776 9.4727572 5.0110079 9.5488281 4.7675781 C 9.6249012 4.5241483 9.7012719 4.2578229 9.7773438 3.96875 z "
     id="path2" />
  <path
     inkscape:connector-curvature="0"
     style="fill:#1e8bcd"
     d="m 16.5,8 a 2.5,2.5 0 0 0 -2.5,2.5 2.5,2.5 0 0 0 2,2.445313 V 15 h -2.5 c -0.277,0 -0.5,0.223 -0.5,0.5 0,0.277 0.223,0.5 0.5,0.5 H 16 v 6.974609 A 7.5,7.5 0 0 1 10.509766,20 H 12.5 C 12.777,20 13,19.777 13,19.5 13,19.223 12.777,19 12.5,19 h -3 C 9.223,19 9,19.223 9,19.5 v 3 C 9,22.777 9.223,23 9.5,23 9.777,23 10,22.777 10,22.5 V 20.949219 A 8.5,8.5 0 0 0 16.5,24 8.5,8.5 0 0 0 23,20.957031 V 22.5 c 0,0.277 0.223,0.5 0.5,0.5 0.277,0 0.5,-0.223 0.5,-0.5 v -3 C 24,19.223 23.777,19 23.5,19 h -3 c -0.277,0 -0.5,0.223 -0.5,0.5 0,0.277 0.223,0.5 0.5,0.5 h 1.988281 A 7.5,7.5 0 0 1 17,22.974609 V 16 h 2.5 C 19.777,16 20,15.777 20,15.5 20,15.223 19.777,15 19.5,15 H 17 V 12.949219 A 2.5,2.5 0 0 0 19,10.5 2.5,2.5 0 0 0 16.5,8 Z m 0,1 A 1.5,1.5 0 0 1 18,10.5 1.5,1.5 0 0 1 16.5,12 1.5,1.5 0 0 1 15,10.5 1.5,1.5 0 0 1 16.5,9 Z"
     id="path2-3" />
</svg>
